public/assets/imgs/projetos/icons/work.svg

<svg fill="none" height="44" viewBox="0 0 43 44" width="43" xmlns="http://www.w3.org/2000/svg"><path clip-rule="evenodd" d="m9.82857 1.75h23.09713c.6785 0 1.2286.55964 1.2286 1.25v11.25c0 .6904-.5501 1.25-1.2286 1.25h-2.9486v-1.5c0-.8284-.66-1.5-1.4742-1.5h-1.2593c.0203-.2105.0307-.4243.0307-.6406 0-3.37414-2.5302-6.1094-5.6514-6.1094s-5.6515 2.73526-5.6515 6.1094c0 .2163.0104.4301.0307.6406h-1.7507c-.8142 0-1.4743.6716-1.4743 1.5v1.5h-2.94853c-.67852 0-1.22857-.5596-1.22857-1.25v-11.25c0-.69036.55005-1.25 1.22857-1.25zm23.09713 15.5h-2.9486v2.0231c.9666.0936 1.6709.4634 2.1534.9589.4701.4828.6988 1.0541.7711 1.518h.2698 7.4943c1.2892 0 2.3343 1.0633 2.3343 2.375 0 .9899-.5953 1.8384-1.4415 2.1951l1.1942 17.0104c.0122.173-.0469.3434-.1631.4704s-.2791.1991-.4496.1991h-1.2286c-.2698 0-.508-.1791-.5872-.4415l-5.1496-17.0585h-2.0032-.2457v2c0 .3452-.275.625-.6143.625h-2.3343v1.125c0 .8284-.66 1.5-1.4742 1.5h-4.4229v.25 3.25.4218l4.7729.8373c.2947.0517.51.3117.51.6159v2.9899c.6465.2516 1.1057.8888 1.1057 1.6351 0 .9665-.7701 1.75-1.72 1.75-.95 0-1.72-.7835-1.72-1.75 0-.7463.4591-1.3835 1.1057-1.6351v-2.4634l-5.8972-1.0345v3.4979c.6466.2516 1.1058.8888 1.1058 1.6351 0 .9665-.7701 1.75-1.72 1.75-.95 0-1.72-.7835-1.72-1.75 0-.7463.4591-1.3835 1.1057-1.6351v-3.4979l-5.8972 1.0345v2.4634c.6466.2516 1.1057.8888 1.1057 1.6351 0 .9665-.77 1.75-1.72 1.75-.9499 0-1.72-.7835-1.72-1.75 0-.7463.4592-1.3835 1.1058-1.6351v-2.9899c0-.3042.2152-.5642.5099-.6159l4.7729-.8373v-.4218-3.25-.25h-4.9143c-.8142 0-1.4743-.6716-1.4743-1.5v-1.125h-2.0885c-.3393 0-.6143-.2798-.6143-.625v-2h-.24573-1.88035l-5.14958 17.0585c-.07921.2624-.31742.4415-.58721.4415h-1.228571c-.170522 0-.333371-.0721-.449573-.1991-.116203-.127-.175301-.2974-.163152-.4704l1.190936-16.9639c-.90918-.3246-1.56107-1.2057-1.56107-2.2416 0-1.3117 1.0451-2.375 2.33429-2.375h7.49428.26983c.0723-.4639.301-1.0352.7711-1.518.4406-.4525 1.0663-.8002 1.9076-.9284v-2.0536h-2.94853c-1.62845 0-2.94857-1.3431-2.94857-3v-11.25c0-1.65685 1.32012-3 2.94857-3h23.09713c1.6285 0 2.9486 1.34315 2.9486 3v11.25c0 1.6569-1.3201 3-2.9486 3zm-11.3028 18h1.4742v-3.25h-2.9485v3.25zm9.6348-14.1383c.3093.3178.4226.691.4394.9093v1.229 1.75 1.5 1.375h-1.5971v-7.3258c.5691.098.9295.3282 1.1577.5625zm5.2022 5.3883h3.8796l1.1408 16.25h-.1149zm-33.6765 0-1.14081 16.25h.11491l4.90551-16.25zm8.5195 1.375v-1.375-1.5-1.75-1.229c.0168-.2183.1301-.5915.4394-.9093.2113-.217.536-.4305 1.0348-.5386v7.3019zm14.2514-16.0156c0 .2183-.0144.4321-.042.6406h-7.7788c-.0277-.2085-.0421-.4223-.0421-.6406 0-2.5091 1.8569-4.3594 3.9315-4.3594 2.0745 0 3.9314 1.8503 3.9314 4.3594zm-11.0572 2.3906h1.9234 10.4047 1.4319v15.75h-13.76zm16.2642-10.5019.003-.00023.0117-.00086c.0106-.00077.0266-.0019.0473-.00328.0415-.00275.1018-.00646.175-.01018.1473-.00748.3438-.01481.5453-.0148.1839.00001.3585.00622.4988.02101.0018.02789.0034.05819.0047.09092.0104.254.0037.58426-.0114.92213-.015.33468-.0375.66338-.0564.90937-.0094.12272-.0179.22421-.024.29477l-.0036.04173-.0035.03958-.0019.0209-.0006.00628v.00026c-.0322.34361.2155.64868.5532.68142.3378.03273.6376-.2193.6698-.56292l.0008-.00858.0021-.0231.0021-.02368.001-.01128.0045-.05121c.0064-.07397.0152-.1795.025-.30679.0195-.25401.043-.59717.0588-.94998.0156-.34962.0242-.72247.0116-1.03095-.0062-.15244-.0183-.30739-.0422-.44323-.0118-.06766-.0293-.14618-.057-.22425-.0239-.06748-.0752-.19254-.1839-.30318-.1406-.143-.3125-.20472-.4076-.23375-.1125-.03435-.2322-.05538-.3421-.06937-.2214-.02815-.4733-.03609-.6982-.0361-.2285-.00002-.4467.00824-.6065.01636-.0803.00408-.1468.00817-.1936.01127-.0234.00155-.042.00286-.0549.00379l-.0151.00112-.0043.00033-.0017.00013s-.0002.00002.0467.62127l-.0469-.62125c-.3383.02644-.5915.32687-.5655.67104.026.34413.3213.60168.6595.57529zm1.48.02724-.0012-.00042-.0027-.00103-.0035-.00144c.006.00192.0087.00306.0085.00315l-.0003-.00003zm.3159 4.84959c.3392 0 .6143.27982.6143.625v.75c0 .34517-.2751.62497-.6143.62497-.3393 0-.6143-.2798-.6143-.62497v-.75c0-.34518.275-.625.6143-.625zm-22.72863 14.62507h-7.49428c-.47497 0-.86.3918-.86.875s.38503.875.86.875h7.49428zm23.34283 0h7.4943c.475 0 .86.3918.86.875s-.385.875-.86.875h-7.4943z" fill="#000" fill-rule="evenodd"/></svg>

<svg width="43" height="44" viewBox="0 0 43 44" fill="none" xmlns="http://www.w3.org/2000/svg">
<path fill-rule="evenodd" clip-rule="evenodd" d="M9.82857 1.75H32.9257C33.6042 1.75 34.1543 2.30964 34.1543 3V14.25C34.1543 14.9404 33.6042 15.5 32.9257 15.5H29.9771V14C29.9771 13.1716 29.3171 12.5 28.5029 12.5H27.2436C27.2639 12.2895 27.2743 12.0757 27.2743 11.8594C27.2743 8.48526 24.7441 5.75 21.6229 5.75C18.5017 5.75 15.9714 8.48526 15.9714 11.8594C15.9714 12.0757 15.9818 12.2895 16.0021 12.5H14.2514C13.4372 12.5 12.7771 13.1716 12.7771 14V15.5H9.82857C9.15005 15.5 8.6 14.9404 8.6 14.25V3C8.6 2.30964 9.15005 1.75 9.82857 1.75ZM32.9257 17.25H29.9771V19.2731C30.9437 19.3667 31.648 19.7365 32.1305 20.232C32.6006 20.7148 32.8293 21.2861 32.9016 21.75H33.1714H40.6657C41.9549 21.75 43 22.8133 43 24.125C43 25.1149 42.4047 25.9634 41.5585 26.3201L42.7527 43.3305C42.7649 43.5035 42.7058 43.6739 42.5896 43.8009C42.4734 43.9279 42.3105 44 42.14 44H40.9114C40.6416 44 40.4034 43.8209 40.3242 43.5585L35.1746 26.5H33.1714H32.9257V28.5C32.9257 28.8452 32.6507 29.125 32.3114 29.125H29.9771V30.25C29.9771 31.0784 29.3171 31.75 28.5029 31.75H24.08V32V35.25V35.6718L28.8529 36.5091C29.1476 36.5608 29.3629 36.8208 29.3629 37.125V40.1149C30.0094 40.3665 30.4686 41.0037 30.4686 41.75C30.4686 42.7165 29.6985 43.5 28.7486 43.5C27.7986 43.5 27.0286 42.7165 27.0286 41.75C27.0286 41.0037 27.4877 40.3665 28.1343 40.1149V37.6515L22.2371 36.617V40.1149C22.8837 40.3665 23.3429 41.0037 23.3429 41.75C23.3429 42.7165 22.5728 43.5 21.6229 43.5C20.6729 43.5 19.9029 42.7165 19.9029 41.75C19.9029 41.0037 20.362 40.3665 21.0086 40.1149V36.617L15.1114 37.6515V40.1149C15.758 40.3665 16.2171 41.0037 16.2171 41.75C16.2171 42.7165 15.4471 43.5 14.4971 43.5C13.5472 43.5 12.7771 42.7165 12.7771 41.75C12.7771 41.0037 13.2363 40.3665 13.8829 40.1149V37.125C13.8829 36.8208 14.0981 36.5608 14.3928 36.5091L19.1657 35.6718V35.25V32V31.75H14.2514C13.4372 31.75 12.7771 31.0784 12.7771 30.25V29.125H10.6886C10.3493 29.125 10.0743 28.8452 10.0743 28.5V26.5H9.82857H7.94822L2.79864 43.5585C2.71943 43.8209 2.48122 44 2.21143 44H0.982859C0.812337 44 0.649488 43.9279 0.533286 43.8009C0.417083 43.6739 0.357985 43.5035 0.370134 43.3305L1.56107 26.3666C0.65189 26.042 0 25.1609 0 24.125C0 22.8133 1.0451 21.75 2.33429 21.75H9.82857H10.0984C10.1707 21.2861 10.3994 20.7148 10.8695 20.232C11.3101 19.7795 11.9358 19.4318 12.7771 19.3036V17.25H9.82857C8.20012 17.25 6.88 15.9069 6.88 14.25V3C6.88 1.34315 8.20012 0 9.82857 0H32.9257C34.5542 0 35.8743 1.34315 35.8743 3V14.25C35.8743 15.9069 34.5542 17.25 32.9257 17.25ZM21.6229 35.25H23.0971V32H20.1486V35.25H21.6229ZM31.2577 21.1117C31.567 21.4295 31.6803 21.8027 31.6971 22.021V23.25V25V26.5V27.875H30.1V20.5492C30.6691 20.6472 31.0295 20.8774 31.2577 21.1117ZM36.4599 26.5H40.3395L41.4803 42.75H41.3654L36.4599 26.5ZM2.7834 26.5L1.64259 42.75H1.7575L6.66301 26.5H2.7834ZM11.3029 27.875V26.5V25V23.25V22.021C11.3197 21.8027 11.433 21.4295 11.7423 21.1117C11.9536 20.8947 12.2783 20.6812 12.7771 20.5731V27.875H11.3029ZM25.5543 11.8594C25.5543 12.0777 25.5399 12.2915 25.5123 12.5H17.7335C17.7058 12.2915 17.6914 12.0777 17.6914 11.8594C17.6914 9.3503 19.5483 7.5 21.6229 7.5C23.6974 7.5 25.5543 9.3503 25.5543 11.8594ZM14.4971 14.25H16.4205H26.8252H28.2571V30H14.4971V14.25ZM30.7613 3.7481L30.7643 3.74787L30.776 3.74701C30.7866 3.74624 30.8026 3.74511 30.8233 3.74373C30.8648 3.74098 30.9251 3.73727 30.9983 3.73355C31.1456 3.72607 31.3421 3.71874 31.5436 3.71875C31.7275 3.71876 31.9021 3.72497 32.0424 3.73976C32.0442 3.76765 32.0458 3.79795 32.0471 3.83068C32.0575 4.08468 32.0508 4.41494 32.0357 4.75281C32.0207 5.08749 31.9982 5.41619 31.9793 5.66218C31.9699 5.7849 31.9614 5.88639 31.9553 5.95695L31.9517 5.99868L31.9482 6.03826L31.9463 6.05916L31.9457 6.06544L31.9457 6.0657C31.9135 6.40931 32.1612 6.71438 32.4989 6.74712C32.8367 6.77985 33.1365 6.52782 33.1687 6.1842L33.1695 6.17562L33.1716 6.15252L33.1737 6.12884L33.1747 6.11756L33.1792 6.06635C33.1856 5.99238 33.1944 5.88685 33.2042 5.75956C33.2237 5.50555 33.2472 5.16239 33.263 4.80958C33.2786 4.45996 33.2872 4.08711 33.2746 3.77863C33.2684 3.62619 33.2563 3.47124 33.2324 3.3354C33.2206 3.26774 33.2031 3.18922 33.1754 3.11115C33.1515 3.04367 33.1002 2.91861 32.9915 2.80797C32.8509 2.66497 32.679 2.60325 32.5839 2.57422C32.4714 2.53987 32.3517 2.51884 32.2418 2.50485C32.0204 2.4767 31.7685 2.46876 31.5436 2.46875C31.3151 2.46873 31.0969 2.47699 30.9371 2.48511C30.8568 2.48919 30.7903 2.49328 30.7435 2.49638C30.7201 2.49793 30.7015 2.49924 30.6886 2.50017L30.6735 2.50129L30.6692 2.50162L30.6675 2.50175C30.6675 2.50175 30.6673 2.50177 30.7142 3.12302L30.6673 2.50177C30.329 2.52821 30.0758 2.82864 30.1018 3.17281C30.1278 3.51694 30.4231 3.77449 30.7613 3.7481ZM32.2413 3.77534L32.2401 3.77492L32.2374 3.77389L32.2339 3.77245C32.2399 3.77437 32.2426 3.77551 32.2424 3.7756L32.2421 3.77557L32.2413 3.77534ZM32.5572 8.62493C32.8964 8.62493 33.1715 8.90475 33.1715 9.24993V9.99993C33.1715 10.3451 32.8964 10.6249 32.5572 10.6249C32.2179 10.6249 31.9429 10.3451 31.9429 9.99993V9.24993C31.9429 8.90475 32.2179 8.62493 32.5572 8.62493ZM9.82857 23.25H2.33429C1.85932 23.25 1.47429 23.6418 1.47429 24.125C1.47429 24.6082 1.85932 25 2.33429 25H9.82857V23.25ZM33.1714 23.25H40.6657C41.1407 23.25 41.5257 23.6418 41.5257 24.125C41.5257 24.6082 41.1407 25 40.6657 25H33.1714V23.25Z" fill="black"/>
</svg>
